images/school.svg

<?xml version="1.0" encoding="UTF-8"?>
<svg width="15" height="15" version="1.1" viewBox="0 0 15 15" xmlns="http://www.w3.org/2000/svg" xmlns:cc="http://creativecommons.org/ns#" xmlns:dc="http://purl.org/dc/elements/1.1/" xmlns:rdf="http://www.w3.org/1999/02/22-rdf-syntax-ns#">
 <metadata>
  <rdf:RDF>
   <cc:Work rdf:about="">
    <dc:format>image/svg+xml</dc:format>
    <dc:type rdf:resource="http://purl.org/dc/dcmitype/StillImage"/>
    <dc:title/>
   </cc:Work>
  </rdf:RDF>
 </metadata>
 <path d="m10 0v15h-10v-15h10zm-1 1h-8v13h8v-13zm-6.5 3h5c0.5 0 0.5 1 0 1h-5c-0.5 0-0.5-1 0-1zm0 2h5c0.5 0 0.5 1 0 1h-5c-0.5 0-0.5-1 0-1zm0 2h5c0.5 0 0.5 1 0 1h-5c-0.5 0-0.5-1 0-1zm0 2h5c0.5 0 0.5 1 0 1h-5c-0.5 0-0.5-1 0-1z" fill="#fff"/>
 <path d="m11 13c0.5 0.5 2.5 0.5 3 0 0 0-1 2-1.5 2s-1.5-2-1.5-2zm0-10c0 0.5 3 0.5 3 0v9c0 0.5-3 0.5-3 0v-9zm1.5-3c-1.5 0-1.5 0.5-1.5 1v1c0 0.5 3 0.5 3 0v-1c0-0.5 0-1-1.5-1z" fill="#fff"/>
</svg>

<?xml version="1.0" encoding="UTF-8" standalone="no"?>
<svg
   xmlns:dc="http://purl.org/dc/elements/1.1/"
   xmlns:cc="http://creativecommons.org/ns#"
   xmlns:rdf="http://www.w3.org/1999/02/22-rdf-syntax-ns#"
   xmlns:svg="http://www.w3.org/2000/svg"
   xmlns="http://www.w3.org/2000/svg"
   xmlns:sodipodi="http://sodipodi.sourceforge.net/DTD/sodipodi-0.dtd"
   xmlns:inkscape="http://www.inkscape.org/namespaces/inkscape"
   version="1.1"
   x="0"
   y="0"
   width="15"
   height="15"
   viewBox="0 0 15 15"
   id="svg65"
   sodipodi:docname="school.svg"
   inkscape:version="0.92.4 (5da689c313, 2019-01-14)">
  <metadata
     id="metadata71">
    <rdf:RDF>
      <cc:Work
         rdf:about="">
        <dc:format>image/svg+xml</dc:format>
        <dc:type
           rdf:resource="http://purl.org/dc/dcmitype/StillImage" />
      </cc:Work>
    </rdf:RDF>
  </metadata>
  <defs
     id="defs69" />
  <sodipodi:namedview
     pagecolor="#ffffff"
     bordercolor="#666666"
     borderopacity="1"
     objecttolerance="10"
     gridtolerance="10"
     guidetolerance="10"
     inkscape:pageopacity="0"
     inkscape:pageshadow="2"
     inkscape:window-width="640"
     inkscape:window-height="480"
     id="namedview67"
     showgrid="false"
     inkscape:zoom="15.733333"
     inkscape:cx="7.5"
     inkscape:cy="7.5"
     inkscape:window-x="0"
     inkscape:window-y="0"
     inkscape:window-maximized="0"
     inkscape:current-layer="svg65" />
  <path
     d="M10,0 L10,15 C10,15 0,15 0,15 C0,15 0,0 0,0 L10,0 z M9,1 L1,1 L1,14 C1,14 9,14 9,14 L9,1 z M2.5,4 C2.5,4 7.5,4 7.5,4 C8,4 8,5 7.5,5 C7.5,5 2.5,5 2.5,5 C2,5 2,4 2.5,4 z M2.5,6 C2.5,6 7.5,6 7.5,6 C8,6 8,7 7.5,7 C7.5,7 2.5,7 2.5,7 C2,7 2,6 2.5,6 z M2.5,8 C2.5,8 7.5,8 7.5,8 C8,8 8,9 7.5,9 C7.5,9 2.5,9 2.5,9 C2,9 2,8 2.5,8 z M2.5,10 C2.5,10 7.5,10 7.5,10 C8,10 8,11 7.5,11 C7.5,11 2.5,11 2.5,11 C2,11 2,10 2.5,10 z"
     id="path61"
     style="fill:#ffffff" />
  <path
     d="M11,13 C11.5,13.5 13.5,13.5 14,13 C14,13 13,15 12.5,15 C12,15 11,13 11,13 z M11,3 C11,3.5 14,3.5 14,3 C14,3 14,12 14,12 C14,12.5 11,12.5 11,12 C11,12 11,3 11,3 z M12.5,0 C11,0 11,0.5 11,1 C11,1 11,2 11,2 C11,2.5 14,2.5 14,2 C14,2 14,1 14,1 C14,0.5 14,0 12.5,0 z"
     id="path63"
     style="fill:#ffffff" />
</svg>
